X: 1
T: CONSTANT BILLY
S: RKS(MSS)
O: Headington
P: A.(A2B2)4
B: Morris Ring
Z: 2005 John Chambers <jc@trillian.mit.edu>
M: 6/8
L: 1/8
K: G
P: A
|: D | G>Bd B>GB | c>Bc A>FD | B>AG E>DC | D>EF G2 :|
P: B
|: D | B>cd e<cB | A>Bc dcd e<cB | A>Bc d2D |
       G>Bd B>GB | c>Bc A>FD | B>AG E>DC | D>EF G2 :|
